assets/Purse/Flat/purse_flat.svg

<svg width="32" height="32" viewBox="0 0 32 32" fill="none" xmlns="http://www.w3.org/2000/svg">
<path d="M14.67 8.84609C15.4487 8.84609 16.08 8.20897 16.08 7.42304C16.08 6.63712 15.4487 6 14.67 6C13.8913 6 13.26 6.63712 13.26 7.42304C13.26 8.20897 13.8913 8.84609 14.67 8.84609Z" fill="#FFB02E"/>
<path d="M16.2727 9.25982C22.0501 9.25799 26.8143 9.25647 29 16.7586C29 16.7586 29.99 19.1405 30 20.9773C30 28.7788 23.72 29.9899 16 29.9899V30C8.27 30 2 28.7788 2 20.9874C2 19.1405 3 16.7586 3 16.7586C5.17586 9.25647 9.94958 9.25799 15.7273 9.25982C15.818 9.25985 15.9089 9.25988 16 9.25988C16.0911 9.25988 16.182 9.25985 16.2727 9.25982Z" fill="#F70A8D"/>
<path d="M21.2001 8.80572H20.5001H18.2401H17.8001C18.4301 8.66442 18.8901 8.09924 18.8901 7.42304C18.8901 6.63583 18.2601 6 17.4801 6C16.7001 6 16.0701 6.63583 16.0701 7.42304C16.0701 8.09924 16.5401 8.66442 17.1601 8.80572H15.9301H14.5001H10.9601C6.62008 8.80572 3.08008 12.3684 3.08008 16.7586C3.84008 16.7586 4.52008 16.2338 4.67008 15.4769C5.26008 12.5198 7.86008 10.2792 10.9601 10.2792H21.2001C24.3001 10.2792 26.9001 12.5198 27.4901 15.4769C27.6401 16.2338 28.3201 16.7586 29.0801 16.7586C29.0801 12.3684 25.5401 8.80572 21.2001 8.80572Z" fill="#F9C23C"/>
</svg>

<svg xmlns="http://www.w3.org/2000/svg" width="32" height="32" fill="none"><path fill="#FFB02E" d="M14.67 8.846c.779 0 1.41-.637 1.41-1.423S15.449 6 14.67 6c-.779 0-1.41.637-1.41 1.423s.631 1.423 1.41 1.423Z"/><path fill="#F70A8D" d="M16.273 9.26C22.05 9.258 26.814 9.256 29 16.759c0 0 .99 2.381 1 4.218 0 7.802-6.28 9.013-14 9.013V30c-7.73 0-14-1.221-14-9.013 0-1.846 1-4.228 1-4.228 2.176-7.503 6.95-7.501 12.727-7.5a823.863 823.863 0 0 0 .546 0Z"/><path fill="#F9C23C" d="M21.2 8.806h-3.4a1.406 1.406 0 0 0 1.09-1.383c0-.787-.63-1.423-1.41-1.423-.78 0-1.41.636-1.41 1.423 0 .676.47 1.241 1.09 1.383h-6.2c-4.34 0-7.88 3.562-7.88 7.953.76 0 1.44-.525 1.59-1.282.59-2.957 3.19-5.198 6.29-5.198H21.2c3.1 0 5.7 2.24 6.29 5.198.15.757.83 1.282 1.59 1.282 0-4.39-3.54-7.953-7.88-7.953Z"/></svg>
